tioso_theme/assets/icons/shopping-cart-solid.svg

<svg aria-hidden="true" focusable="false" data-prefix="fas" data-icon="shopping-cart" class="svg-inline--fa fa-shopping-cart fa-w-18" role="img" xmlns="http://www.w3.org/2000/svg" viewBox="0 0 576 512"><path fill="currentColor" d="M528.12 301.319l47.273-208C578.806 78.301 567.391 64 551.99 64H159.208l-9.166-44.81C147.758 8.021 137.93 0 126.529 0H24C10.745 0 0 10.745 0 24v16c0 13.255 10.745 24 24 24h69.883l70.248 343.435C147.325 417.1 136 435.222 136 456c0 30.928 25.072 56 56 56s56-25.072 56-56c0-15.674-6.447-29.835-16.824-40h209.647C430.447 426.165 424 440.326 424 456c0 30.928 25.072 56 56 56s56-25.072 56-56c0-22.172-12.888-41.332-31.579-50.405l5.517-24.276c3.413-15.018-8.002-29.319-23.403-29.319H218.117l-6.545-32h293.145c11.206 0 20.92-7.754 23.403-18.681z"></path></svg>

<svg xmlns="http://www.w3.org/2000/svg" viewBox="0 0 576 512"><defs><style>.cls-1{fill:#fff;}</style></defs><g id="Capa_2" data-name="Capa 2"><g id="Capa_1-2" data-name="Capa 1"><path class="cls-1" d="M528.12,301.32l47.27-208A24,24,0,0,0,552,64H159.21L150,19.19A24,24,0,0,0,126.53,0H24A24,24,0,0,0,0,24V40A24,24,0,0,0,24,64H93.88l70.25,343.43A56,56,0,1,0,231.18,416H440.82a56,56,0,1,0,63.6-10.4l5.52-24.28A24,24,0,0,0,486.53,352H218.12l-6.55-32H504.72A24,24,0,0,0,528.12,301.32Z"/></g></g></svg>
